X: 4376
T: STILLER KIRCHHOF
%R: march, reel
B: James Kerr "Merry Melodies" v.4 p.40 #376
Z: 2016 John Chambers <jc:trillian.mit.edu>
M: C
L: 1/8
K: D
AA |\
d2fd e2ge | df a4 gb |\
afge d2c2 | (c2d2) z2 :|\
ga |\
b2b2 bged | dc c4 Ac |\
e3f gbag | (g2f2) z2AA |\
d2fd e2ge | df a4 gb |\
afge d2c2 | (c2d2) z2 |]

%%sep 1 1 500
%%sep 1 1 500

